www/assets/icons/flash_off.svg

<svg xmlns="http://www.w3.org/2000/svg" width="24" height="24" viewBox="0 0 24 24" fill='currentColor'><path d="M4.77 3 3.5 4.27l5 5V13h3v9l3.58-6.14L19.23 20l1.27-1.27zm13.73 7h-4l4-8h-10v2.18l8.46 8.46z"/></svg>

<svg width="24" height="24" viewBox="0 0 24 24" xmlns="http://www.w3.org/2000/svg" fill='currentColor'><path d="M4.77 3L3.5 4.27L8.5 9.27V13H11.5V22L15.08 15.86L19.23 20L20.5 18.73L4.77 3ZM18.5 10H14.5L18.5 2H8.5V4.18L16.96 12.64L18.5 10Z"/></svg>
